!!!!SEGMENT: pl-wnifc--6485-n--001_osmanski-wojciech--marsz-zuaw-no-3.krn
!!!cenid: 18xx:3958
!!!COM: Osmański, Wojciech
!!!COM-rismID: pe30090329
!!!CDT: 1834-1908
!!!CNT:
!!!OTL: Marsz Żuaw No. 3
!!!PDT:
!!!AGN:
!!!SMS-siglum: PL-Wnifc
!!!SMS-shelfmark: 6485/n
!!!SMS-shelfwork: 001 W
!!!SMS-variant:
!!!SMS-altvar:
!!!NIFC-rismSourceID: 1001145810
!!!NIFC-islandoraID: nifc:212778
!!!URL-pdf-islandora: https://repozytorium.nifc.pl/islandora/object/nifc:212778/datastream/PDF/view
!!!URL-scan: https://polish.musicsources.pl/pl/lokalizacje/galeria/druki-muzyczne/16862 @EN{Scan on Polish Music Sources Website} @PL{Skany w portalu Dziedzictwo Muzyki Polskiej w otwartym dostępie}
!!!ONB-nifc: UWAGA: str. 3-7 (skany 0002-0004)
!!!AIN: 2 piano
!!!key: f
**kern	**dynam	**kern	**dynam
*part1	*part1	*part2	*part2
*staff2	*	*staff2	*
*I"Piano	*	*I"Piano	*
*I'P-no	*	*I'P-no	*
*Ipiano	*	*Ipiano	*
*ICklav	*	*ICklav	*
*clefF4	*	*clefG2	*
*k[]	*	*k[]	*
*f:	*	*f:	*
*M4/4	*	*M4/4	*
*met(c)	*	*met(c)	*
=1	=1	=1	=1
*	*	*Xtuplet	*
!	!	!LO:TX:a:B:t=Allegro.	!
1r	.	12f'\L	f
.	.	12a'\	.
.	.	12cc'\J	.
.	.	12ff'\L	.
.	.	12cc'\	.
.	.	12a'\J	.
.	.	12f'\L	.
.	.	12a'\	.
.	.	12cc';\J	.
.	.	4r	.
=2	=2	=2	=2
1r	.	12.cc\L	.
.	.	24cc\K	.
.	.	12cc\J	.
.	.	12ff\L	.
.	.	12cc\	.
.	.	12a\J	.
.	.	12f\L	.
.	.	12a\	.
.	.	12cc;\J	.
.	.	4r	.
=3	=3	=3	=3
1r	.	12f^/L	.
.	.	12c'/	.
.	.	12c'/J	.
.	.	12f^/L	.
.	.	12c'/	.
.	.	12c'/J	.
.	.	2f/	.
=4	=4	=4	=4
2r	.	12f\L	.
.	.	12a\	.
.	.	12cc\J	.
.	.	4ff;\	.
2CC^^;/	ff	2r	.
!LO:LB:g=original	!	!LO:LB:g=original	!
=5||	=5||	=5||	=5||
*k[b-e-a-d-]	*	*k[b-e-a-d-]	*
!	!	!LO:TX:a:B:t=Allegro. Vivace.	!
*	*above	*	*
(16FF\KL	pp	1r	.
8F'\J)	.	.	.
16r	.	.	.
(16FF\KL	.	.	.
8F'\J)	.	.	.
16r	.	.	.
(16FF\KL	.	.	.
8F'\J)	.	.	.
16r	.	.	.
(16FF\KL	.	.	.
8F'\J)	.	.	pf
16r	.	.	.
=6	=6	=6	=6
(16FF\KL	p	((1B- 1d-	.
8F'\J)	.	.	.
16r	.	.	.
(16FF\KL	.	.	.
8F'\J)	.	.	.
16r	.	.	.
(16FF\KL	.	.	.
8F'\J)	.	.	.
16r	.	.	.
(16FF\KL	.	.	.
8F'\J)	.	.	.
16r	.	.	.
=7	=7	=7	=7
(16FF\KL	.	4An/)) 4c	]
8F'\J)	.	.	.
16r	.	.	.
(16FF\KL	.	4r	.
8F'\J)	.	.	.
16r	.	.	.
(16FF\KL	.	2r	.
8F'\J)	.	.	.
16r	.	.	.
(16FF\KL	.	.	.
8F'\J)	.	.	.
16r	.	.	.
!LO:LB:g=original	!	!LO:LB:g=original	!
=8	=8	=8	=8
*	*	*	*above
(16FF\KL	f	((1c 1e-	>
8F'\J)	.	.	.
16r	.	.	.
(16FF\KL	.	.	.
8F'\J)	.	.	.
16r	.	.	.
(16FF\KL	.	.	.
8F'\J)	.	.	.
16r	.	.	.
(16FF\KL	.	.	.
8F'\J)	.	.	.
16r	.	.	.
=9	=9	=9	=9
(16FF\KL	p	4B-/)) 4d-	]
8F'\J)	.	.	.
16r	.	.	.
(16FF\KL	.	4r	.
8F'\J)	.	.	.
16r	.	.	.
(16FF\KL	.	2r	.
8F'\J)	.	.	.
16r	.	.	.
(16FF\KL	.	.	.
8F'\J)	.	.	.
16r	.	.	.
=10	=10	=10	=10
!	!	!	!LO:DY:b
(16FF\KL	.	((2e-/ 2g-X	f >
8F'\J)	.	.	.
16r	.	.	.
(16FF\KL	.	.	.
8F'\J)	.	.	.
16r	.	.	.
(16FF\KL	.	8c/)) 8f	.
8F'\J)	.	.	.
.	.	8r	]
16r	.	.	.
(16FF\KL	.	4r	.
8F'\J)	.	.	.
16r	.	.	.
!LO:LB:g=original	!	!LO:LB:g=original	!
=11	=11	=11	=11
*tremolo	*	*	*below
!	!	!	!LO:HP:t=cre - -
(32FF\LLL	.	(4b-^\ 4dd-	<
32F\	.	.	.
32FF\	.	.	.
32F\	.	.	.
32FF\	.	.	.
32F\	.	.	.
32FF\	.	.	.
32F\	.	.	.
32FF\	.	8an\) 8cc	.
32F\	.	.	.
32FF\	.	.	.
32F\	.	.	.
32FF\	.	8r	.
32F\	.	.	.
32FF\	.	.	.
32F\JJJ)	.	.	.
(32FF\LLL	.	((4ee-^\ 4gg-X	.
32F\	.	.	.
32FF\	.	.	.
32F\	.	.	.
32FF\	.	.	.
32F\	.	.	.
32FF\	.	.	.
32F\	.	.	.
32FF\	.	8cc\)) 8ff	.
32F\	.	.	.
32FF\	.	.	.
32F\	.	.	.
32FF\	.	8r	]
32F\	.	.	.
32FF\	.	.	.
32F\JJJ)	.	.	.
=12	=12	=12	=12
*	*	*8va	*
(32FF\LLL	.	((4bb-^\ 4ddd-	f
32F\	.	.	.
32FF\	.	.	.
32F\	.	.	.
32FF\	.	.	.
32F\	.	.	.
32FF\	.	.	.
32F\	.	.	.
32FF\	.	8aan\)) 8ccc	.
32F\	.	.	.
32FF\	.	.	.
32F\	.	.	.
32FF\	.	8r	.
32F\	.	.	.
32FF\	.	.	.
32F\JJJ)	.	.	.
(32FF\LLL	.	4eee-\ 4ggg-X	.
32F\	.	.	.
32FF\	.	.	.
32F\	.	.	.
32FF\	.	.	.
32F\	.	.	.
32FF\	.	.	.
32F\	.	.	.
32FF\	.	8ccc\ 8fff	.
32F\	.	.	.
32FF\	.	.	.
32F\	.	.	.
32FF\	.	8r	.
32F\	.	.	.
32FF\	.	.	.
32F\JJJ)	.	.	.
=13	=13	=13	=13
*	*	*ped	*
(32BBB-/LLL	.	8ddd-^^\ 8fff 8bbb-	ff
32BB-/	.	.	.
32BBB-/	.	.	.
32BB-/	.	.	.
*	*	*X8va	*
32BBB-/	.	8r	.
32BB-/	.	.	.
32BBB-/	.	.	.
32BB-/	.	.	.
32BBB-/	.	4r	.
32BB-/	.	.	.
32BBB-/	.	.	.
32BB-/	.	.	.
32BBB-/	.	.	.
32BB-/	.	.	.
32BBB-/	.	.	.
32BB-/JJJ)	.	.	.
(32BBB-/LLL	.	2r	.
32BB-/	.	.	.
32BBB-/	.	.	.
32BB-/	.	.	.
32BBB-/	.	.	.
32BB-/	.	.	.
32BBB-/	.	.	.
32BB-/	.	.	.
32BBB-/	.	.	.
32BB-/	.	.	.
32BBB-/	.	.	.
32BB-/	.	.	.
32BBB-/	.	.	.
32BB-/	.	.	.
32BBB-/	.	.	.
32BB-/JJJ)	.	.	.
=14	=14	=14	=14
.	.	8qG^^/ 8qg	ff
(32BBB-/LLL	.	2.G/ 2.g	.
32BB-/	.	.	.
32BBB-/	.	.	.
32BB-/	.	.	.
32BBB-/	.	.	.
32BB-/	.	.	.
32BBB-/	.	.	.
32BB-/	.	.	.
32BBB-/	.	.	.
32BB-/	.	.	.
32BBB-/	.	.	.
32BB-/	.	.	.
32BBB-/	.	.	.
32BB-/	.	.	.
32BBB-/	.	.	.
32BB-/JJJ)	.	.	.
(32BBB-/LLL	.	.	.
32BB-/	.	.	.
32BBB-/	.	.	.
32BB-/	.	.	.
32BBB-/	.	.	.
32BB-/	.	.	.
32BBB-/	.	.	.
32BB-/	.	.	.
32BBB-/	.	4r	.
!	!	!LO:PB:g=original	!
32BB-/	.	.	.
32BBB-/	.	.	.
32BB-/	.	.	.
32BBB-/	.	.	.
32BB-/	.	.	.
32BBB-/	.	.	.
32BB-/JJJ)	.	.	.
!LO:PB:g=original	!	!	!
=15	=15	=15	=15
*	*	*ped	*
(32BBB-/LLL	.	8g^^\ 8b- 8cc#X 8een	.
32BB-/	.	.	.
32BBB-/	.	.	.
32BB-/	.	.	.
32BBB-/	.	8r	.
32BB-/	.	.	.
32BBB-/	.	.	.
32BB-/	.	.	.
*	*	*8va	*
32BBB-/	.	8gg^^\ 8bb- 8ccc#X 8eeen	.
32BB-/	.	.	.
32BBB-/	.	.	.
32BB-/	.	.	.
*	*	*X8va	*
32BBB-/	.	8r	.
32BB-/	.	.	.
32BBB-/	.	.	.
32BB-/JJJ)	.	.	.
(32BBB-/LLL	.	16G'/LL 16g	ff
32BB-/	.	.	.
32BBB-/	.	16A-'/ 16a-	.
32BB-/	.	.	.
32BBB-/	.	16An'/ 16an	.
32BB-/	.	.	.
32BBB-/	.	16B-'/JJ 16b-	.
32BB-/	.	.	.
*	*	*Xped	*
32BBB-/	.	4r	.
32BB-/	.	.	.
32BBB-/	.	.	.
32BB-/	.	.	.
32BBB-/	.	.	.
32BB-/	.	.	.
32BBB-/	.	.	.
32BB-/JJJ)	.	.	.
=16	=16	=16	=16
*	*	*ped	*
(32BBB-/LLL	.	8f^\ 8b- 8dd-	.
32BB-/	.	.	.
32BBB-/	.	.	.
32BB-/	.	.	.
32BBB-/	.	8r	.
32BB-/	.	.	.
32BBB-/	.	.	.
32BB-/	.	.	.
*	*	*8va	*
32BBB-/	.	8ff^\ 8bb- 8ddd-	.
32BB-/	.	.	.
32BBB-/	.	.	.
32BB-/	.	.	.
*	*	*X8va	*
32BBB-/	.	8r	.
32BB-/	.	.	.
32BBB-/	.	.	.
32BB-/JJJ)	.	.	.
(32BBB-/LLL	.	16B-'/LL 16b-	ff
32BB-/	.	.	.
32BBB-/	.	16Bn'/ 16bn	.
32BB-/	.	.	.
32BBB-/	.	16c'/ 16cc	.
32BB-/	.	.	.
32BBB-/	.	16d-'/JJ 16dd-	.
32BB-/	.	.	.
*	*	*Xped	*
32BBB-/	.	4r	.
32BB-/	.	.	.
32BBB-/	.	.	.
32BB-/	.	.	.
32BBB-/	.	.	.
32BB-/	.	.	.
32BBB-/	.	.	.
32BB-/JJJ)	.	.	.
=17	=17	=17	=17
*	*	*ped	*
8GGG/ 8GG	.	8G/ 8g	.
8r	.	8r	.
4G\ 4B- 4c 4en	.	4g^\ 4b- 4cc 4een	.
(8qC/ 8qc	.	(8qcc/ 8qccc	.
*	*	*Xped	*
2C\) 2c	.	2a-\) 2aa-	.
!LO:LB:g=original	!	!LO:LB:g=original	!
=18	=18	=18	=18
4F^\ 4f	.	4ff^\ 4fff	ff
4C^\ 4c	.	8cc'\L 8ccc	.
.	.	8cc'\J 8ccc	.
4F^\ 4f	.	4ff^\ 4fff	.
4C^\ 4c	.	8cc'\L 8ccc	.
.	.	8cc'\J 8ccc	.
=19	=19	=19	=19
8F\ 8f	.	8ff\ 8fff	p
8r	.	8r	.
8D-'\ 8d-	.	8dd-'^^\ 8ddd-	ff
8r	.	8r	.
8C'\ 8c	.	8cc'\ 8ccc	p
8r	.	8r	.
8AA-'\ 8A-	.	8a-'\ 8aa-	.
8r	.	8r	.
=20	=20	=20	=20
8FF'/ 8F	.	8f'\ 8ff	.
8r	.	8r	.
8BB-'^^\ 8B-	.	8b-'^^\ 8bb-	f
8r	.	8r	.
8AA-'\ 8A-	.	8a-'\ 8aa-	p
8r	.	8r	.
8FF'/ 8F	.	8f'\ 8ff	.
8r	.	8r	.
!LO:LB:g=original	!	!LO:LB:g=original	!
=21	=21	=21	=21
8EEn/ 8En	.	8en'/ 8een	.
8r	.	8r	.
8AA-'^^\ 8A-	.	8a-'^^\ 8aa-	ff
8r	.	8r	.
8GG'\ 8G	.	8g'\ 8gg	p
8r	.	8r	.
8CC'/ 8C	.	8c'/ 8cc	.
8r	.	8r	.
=22	=22	=22	=22
8FF'/ 8F	.	2.a-\ 2.cc 2.ff	p
8r	.	.	.
8FF'/ 8F	.	.	.
8r	.	.	.
8FF'/ 8F	.	.	.
8r	.	.	.
8FF'/ 8F	.	4r	.
8r	.	.	.
=23	=23	=23	=23
.	.	(16qqff/LL	p
.	.	16qqgg/JJ)	.
*Xtremolo	*	*	*
8FF'/L 8AAn 8BB- 8Dn	.	8aa-'\	.
8FF'/ 8AA 8BB- 8D	.	8r	.
8FF'/J 8AA 8BB- 8D	.	4r	.
8r	.	.	.
.	.	16qqgg#X/LL	.
.	.	16qqaan/JJ	.
8FF'/L 8AA 8BB- 8D	.	8bbn'\	.
8FF'/ 8AA 8BB- 8D	.	8r	.
8FF'/J 8AA 8BB- 8D	.	4r	.
8r	.	.	.
=24	=24	=24	=24
8CC^^/ 8EEn 8GG 8C	.	8een^^\ 8gg 8ccc	ff
8r	.	8r	.
8C^^\ 8E- 8G 8c	.	8e-^^/ 8g 8cc	.
8r	.	8r	.
2r	.	2r	.
!LO:LB:g=original	!	!LO:LB:g=original	!
=25	=25	=25	=25
8r	.	8r	.
8FF'/ 8F	.	8f'/ 8ff	p
8r	.	8r	.
8AA-'/ 8A-	.	8a-'\ 8aa-	<
8r	.	8r	.
8EEn'/ 8En	.	8en'/ 8een	.
8r	.	8r	.
8FF'/ 8F	.	8f'/ 8ff	.
=26	=26	=26	=26
8r	.	8r	[
8DD-'/ 8D-	.	8d-'/ 8dd-	>
8r	.	8r	.
8CC'/ 8C	.	8c'/ 8cc	.
8r	.	8r	.
8BBBn'/ 8BBn	.	8Bn'/ 8bn	.
8r	.	8r	.
8CC'/ 8C	.	8c'/ 8cc	.
=27	=27	=27	=27
*tremolo	*	*	*
(32FFF/LLL	.	2A-^/ 2a-	] f
32FF/	.	.	.
32FFF/	.	.	.
32FF/	.	.	.
32FFF/	.	.	.
32FF/	.	.	.
32FFF/	.	.	.
32FF/	.	.	.
32FFF/	.	.	.
32FF/	.	.	.
32FFF/	.	.	.
32FF/	.	.	.
32FFF/	.	.	.
32FF/	.	.	.
32FFF/	.	.	.
32FF/JJJ)	.	.	.
(32FFF/LLL	.	4.G/ 4.g	>
32FF/	.	.	.
32FFF/	.	.	.
32FF/	.	.	.
32FFF/	.	.	.
32FF/	.	.	.
32FFF/	.	.	.
32FF/	.	.	.
32FFF/	.	.	.
32FF/	.	.	.
32FFF/	.	.	.
32FF/	.	.	.
32FFF/	.	8F/ 8f	.
32FF/	.	.	.
32FFF/	.	.	.
32FF/JJJ)	.	.	.
=28	=28	=28	=28
(32FFF/LLL	.	((2d-^/ 2dd-	] >
32FF/	.	.	.
32FFF/	.	.	.
32FF/	.	.	.
32FFF/	.	.	.
32FF/	.	.	.
32FFF/	.	.	.
32FF/	.	.	.
32FFF/	.	.	.
32FF/	.	.	.
32FFF/	.	.	.
32FF/	.	.	.
32FFF/	.	.	.
32FF/	.	.	.
32FFF/	.	.	.
32FF/JJJ)	.	.	.
(32FFF/LLL	.	2c/)) 2cc	]
!	!	!LO:LB:g=original	!
32FF/	.	.	.
32FFF/	.	.	.
32FF/	.	.	.
32FFF/	.	.	.
32FF/	.	.	.
32FFF/	.	.	.
32FF/	.	.	.
32FFF/	.	.	.
32FF/	.	.	.
32FFF/	.	.	.
32FF/	.	.	.
32FFF/	.	.	.
32FF/	.	.	.
32FFF/	.	.	.
32FF/JJJ)	.	.	.
!LO:LB:g=original	!	!	!
=29	=29	=29	=29
*	*	*ped	*
8CC/ 8C	.	12.c^/L 12.en 12.g	] ff
8r	.	24c/K 24e 24g	.
.	.	12c/J 12e 12g	.
4r	.	12.e^/L 12.g 12.cc	.
.	.	24e/K 24g 24cc	.
.	.	12e/J 12g 12cc	.
2r	.	12.g^/L 12.cc 12.ee-	.
.	.	24g/K 24cc 24ee-	.
.	.	12g/J 12cc 12ee-	.
*	*	*Xped	*
.	.	4e^/ 4g 4cc	.
=30	=30	=30	=30
*	*	*8va	*
*	*	*ped	*
(32FF\LLL	.	8fff'\L 8aaa-	.
32F\	.	.	.
32FF\	.	.	.
32F\	.	.	.
32FF\	.	8fff'\ 8aaa-	.
32F\	.	.	.
32FF\	.	.	.
32F\	.	.	.
32FF\	.	8bb-'\ 8fff	.
32F\	.	.	.
32FF\	.	.	.
32F\	.	.	.
32FF\	.	8bb-'\J 8fff	.
32F\	.	.	.
32FF\	.	.	.
32F\JJJ)	.	.	.
(32FF\LLL	.	8aa-'\L 8ccc	.
32F\	.	.	.
32FF\	.	.	.
32F\	.	.	.
32FF\	.	8aa-'\ 8ccc	.
32F\	.	.	.
32FF\	.	.	.
32F\	.	.	.
32FF\	.	8ff'\ 8aa-	.
32F\	.	.	.
32FF\	.	.	.
32F\	.	.	.
32FF\	.	8ff'\J 8aa-	.
32F\	.	.	.
32FF\	.	.	.
32F\JJJ)	.	.	.
*	*	*X8va	*
=31	=31	=31	=31
!	!	!LO:TX:a:B:t=loco.	!
(32FF\LLL	.	8cc'\L 8ff	.
32F\	.	.	.
32FF\	.	.	.
32F\	.	.	.
32FF\	.	8cc'\ 8ff	.
32F\	.	.	.
32FF\	.	.	.
32F\	.	.	.
32FF\	.	8a-'\ 8cc	.
32F\	.	.	.
32FF\	.	.	.
32F\	.	.	.
32FF\	.	8a-'\J 8cc	.
32F\	.	.	.
32FF\	.	.	.
32F\JJJ)	.	.	.
(32FF\LLL	.	8f'/L 8a-	.
32F\	.	.	.
32FF\	.	.	.
32F\	.	.	.
32FF\	.	8f'/ 8a-	.
32F\	.	.	.
32FF\	.	.	.
32F\	.	.	.
32FF\	.	8c'/ 8f	.
32F\	.	.	.
32FF\	.	.	.
32F\	.	.	.
32FF\	.	8c'/J 8f	.
32F\	.	.	.
32FF\	.	.	.
32F\JJJ)	.	.	.
=32	=32	=32	=32
*	*	*ped	*
(32CC/LLL	.	2c^/ 2en 2g	ff
32C/	.	.	.
32CC/	.	.	.
32C/	.	.	.
32CC/	.	.	.
32C/	.	.	.
32CC/	.	.	.
32C/	.	.	.
32CC/	.	.	.
32C/	.	.	.
32CC/	.	.	.
32C/	.	.	.
32CC/	.	.	.
32C/	.	.	.
32CC/	.	.	.
32C/JJJ)	.	.	.
.	.	8qe/ 8qg 8qcc	.
(32CC/LLL	.	2e^/ 2g 2cc	.
!	!	!LO:LB:g=original	!
32C/	.	.	.
32CC/	.	.	.
32C/	.	.	.
32CC/	.	.	.
32C/	.	.	.
32CC/	.	.	.
32C/	.	.	.
32CC/	.	.	.
32C/	.	.	.
32CC/	.	.	.
32C/	.	.	.
32CC/	.	.	.
32C/	.	.	.
32CC/	.	.	.
32C/JJJ)	.	.	.
!LO:LB:g=original	!	!	!
=33	=33	=33	=33
*	*	*ped	*
(32CC/LLL	.	((2A-/ 2a-	f >
32C/	.	.	.
32CC/	.	.	.
32C/	.	.	.
32CC/	.	.	.
32C/	.	.	.
32CC/	.	.	.
32C/	.	.	.
32CC/	.	.	.
32C/	.	.	.
32CC/	.	.	.
32C/	.	.	.
32CC/	.	.	.
32C/	.	.	.
32CC/	.	.	.
32C/JJJ)	.	.	.
(32CC/LLL	.	4G/)) 4g	.
32C/	.	.	.
32CC/	.	.	.
32C/	.	.	.
32CC/	.	.	.
32C/	.	.	.
32CC/	.	.	.
32C/	.	.	.
*	*	*Xped	*
32CC/	.	4r	]
32C/	.	.	.
32CC/	.	.	.
32C/	.	.	.
32CC/	.	.	.
32C/	.	.	.
32CC/	.	.	.
32C/JJJ)	.	.	.
=34	=34	=34	=34
!	!	!	!LO:DY:b
*	*	*ped	*
(32CC/LLL	.	8een\L 8gg 8ccc	] ff >
32C/	.	.	.
32CC/	.	.	.
32C/	.	.	.
32CC/	.	8ee'\ 8gg 8ccc	.
32C/	.	.	.
32CC/	.	.	.
32C/	.	.	.
32CC/	.	8cc'\ 8ee 8gg	.
32C/	.	.	.
32CC/	.	.	.
32C/	.	.	.
32CC/	.	8cc'\J 8ee 8gg	.
32C/	.	.	.
32CC/	.	.	.
32C/JJJ)	.	.	.
(32CC/LLL	.	8g'\L 8cc 8ee	.
32C/	.	.	.
32CC/	.	.	.
32C/	.	.	.
32CC/	.	8g'\ 8cc 8ee	.
32C/	.	.	.
32CC/	.	.	.
32C/	.	.	.
32CC/	.	8e-'\ 8g 8cc	.
32C/	.	.	.
32CC/	.	.	.
32C/	.	.	.
*	*	*Xped	*
32CC/	.	8e-'\J 8g 8cc	]
32C/	.	.	.
32CC/	.	.	.
32C/JJJ)	.	.	.
=35	=35	=35	=35
*	*	*ped	*
(32CC/LLL	.	8c'/L 8en	ff
32C/	.	.	.
32CC/	.	.	.
32C/	.	.	.
32CC/	.	8c'/ 8e	.
32C/	.	.	.
32CC/	.	.	.
32C/	.	.	.
32CC/	.	8c'/ 8e 8g	.
32C/	.	.	.
32CC/	.	.	.
32C/	.	.	.
32CC/	.	8c'/J 8e 8g	<
32C/	.	.	.
32CC/	.	.	.
32C/JJJ)	.	.	.
(32CC/LLL	.	8e'/L 8g 8cc	.
32C/	.	.	.
32CC/	.	.	.
32C/	.	.	.
32CC/	.	8e'/ 8g 8cc	.
32C/	.	.	.
32CC/	.	.	.
32C/	.	.	.
32CC/	.	8g'/ 8cc 8ee-	.
32C/	.	.	.
32CC/	.	.	.
32C/	.	.	.
*	*	*Xped	*
32CC/	.	8g'/J 8cc 8ee-	.
!	!	!LO:LB:g=original	!
32C/	.	.	[
32CC/	.	.	.
32C/JJJ)	.	.	.
!LO:LB:g=original	!	!	!
=36	=36	=36	=36
*	*	*ped	*
(32GG\LLL	.	2g^\ 2bn 2dd-	ff
32G\	.	.	.
32GG\	.	.	.
32G\	.	.	.
32GG\	.	.	.
32G\	.	.	.
32GG\	.	.	.
32G\	.	.	.
32GG\	.	.	.
32G\	.	.	.
32GG\	.	.	.
32G\	.	.	.
32GG\	.	.	.
32G\	.	.	.
32GG\	.	.	.
32G\JJJ)	.	.	.
.	.	(8qb/ 8qdd- 8qgg	.
(32GG\LLL	.	2b^\) 2dd- 2gg	.
32G\	.	.	.
32GG\	.	.	.
32G\	.	.	.
32GG\	.	.	.
32G\	.	.	.
32GG\	.	.	.
32G\	.	.	.
32GG\	.	.	.
32G\	.	.	.
32GG\	.	.	.
32G\	.	.	.
32GG\	.	.	.
32G\	.	.	.
32GG\	.	.	.
32G\JJJ)	.	.	.
=37	=37	=37	=37
8C\ 8En 8G 8c	.	8en^/L 8g 8cc	.
8r	.	16g'/L	.
.	.	16g'/JJ	.
4r	.	8cc^/L	.
.	.	16g'/L	.
.	.	16g/JJ	.
2r	.	2cc^\	.
=38	=38	=38	=38
*	*	*tuplet	*
1r	.	8c^/L	.
!LO:LB:g=original	!	!	!
.	.	24c'/L	.
.	.	24c'/	.
.	.	24c'/JJ	.
.	.	8en^/L	<
.	.	24e'/L	.
.	.	24e'/	.
.	.	24e'/JJ	.
.	.	8g^/L	.
.	.	24g'/L	.
.	.	24g'/	.
.	.	24g'/JJ	[
.	.	4cc^;\	.
!	!	!LO:LB:g=original	!
=39	=39	=39	=39
!	!	!LO:TX:a:B:t=piu mosso.	!
8C'\L 8c	.	8cc'\L 8ccc	[ ff
8BBn'\ 8Bn	.	8bn'\ 8bbn	.
8BB-X'\ 8B-X	.	8b-X'\ 8bb-X	.
8AAn'\J 8An	.	8an'\J 8aan	.
8AA-X'\L 8A-X	.	8a-X'\L 8aa-X	.
8GG'\ 8G	.	8g'\ 8gg	.
8GG-X'\ 8G-X	.	8g-X'\ 8gg-X	.
8FF'\J 8F	.	8f'\J 8ff	.
=40	=40	=40	=40
8EEn'/L 8En	.	8en'/L 8een	ff
8EE-X'/ 8E-X	.	8e-X'/ 8ee-X	.
8DDn'/ 8Dn	.	8dn'/ 8ddn	.
8DD-X'/J 8D-X	.	8d-X'/J 8dd-X	.
8CC'/L 8C	.	8c'/L 8cc	.
8CC'/ 8C	.	8c'/ 8cc	.
8BBBn'/ 8BBn	.	8Bn'/ 8bn	.
8CC'/J 8C	.	8c'/J 8cc	.
=41	=41	=41	=41
8DD-'/L 8D-	.	8d-'/L 8dd-	.
8CC'/ 8C	.	8c'/ 8cc	.
8BBBn'/ 8BBn	.	8Bn'/ 8bn	<
8CC'/J 8C	.	8c'/J 8cc	.
8DD-'/L 8D-	.	8d-'/L 8dd-	.
8DDn'/ 8Dn	.	8dn'/ 8ddn	.
8EE-'/ 8E-	.	8e-'/ 8ee-	.
8EEn'/J 8En	.	8en'/J 8een	[
!LO:LB:g=original	!	!LO:LB:g=original	!
=42	=42	=42	=42
8FF^/ 8F	.	8r	[
8r	.	8a-'\L 8cc 8ff	p
4r	.	8a-'\ 8cc 8ff	.
.	.	8a-'\J 8cc 8ff	.
2r	.	8a-'\L 8cc 8ff	.
.	.	8a-'\ 8cc 8ff	.
.	.	8a-'\ 8cc 8ff	.
.	.	8a-'\J 8cc 8ff	.
=43	=43	=43	=43
4r	.	8a-'\L 8cc 8ff	.
.	.	8a-'\ 8cc 8ff	p
*	*below	*	*
8AA-^\ 8A-	f	8a-'\ 8cc 8ff	.
8r	.	8a-'\J 8cc 8ff	.
8C^\ 8c	.	8a-'\L 8cc 8ff	.
8r	.	8a-'\ 8cc 8ff	.
8FF^/ 8F	.	8a-'\ 8cc 8ff	.
8r	.	8a-'\J 8cc 8ff	.
=44	=44	=44	=44
*	*	*ped	*
2.f\	ff	8a-'\L 8cc 8ff	>
.	.	8a-'\ 8cc 8ff	.
.	.	8a-'\ 8cc 8ff	.
.	.	8a-'\J 8cc 8ff	.
.	.	8a-'\L 8cc 8ff	.
.	.	8a-'\ 8cc 8ff	]
8E-'\L 8e-	.	8a-'\ 8cc 8ff	.
8D-'\J 8d-	.	8a-'\J 8cc 8ff	.
*	*	*Xped	*
!LO:LB:g=original	!	!LO:LB:g=original	!
=45	=45	=45	=45
2C\ 2c	.	8a-'\L 8cc 8ff	p
.	.	8a-'\ 8cc 8ff	.
.	.	8a-'\ 8cc 8ff	.
.	.	8a-'\J 8cc 8ff	.
2r	.	8a-'\L 8cc 8ff	.
.	.	8a-'\ 8cc 8ff	.
.	.	8a-'\ 8cc 8ff	.
.	.	8a-'\J 8cc 8ff	.
=46	=46	=46	=46
*	*	*ped	*
8CC^/ 8C	f	8g'^\L 8b- 8cc	.
!	!	!	!LO:DY:a
8r	.	8g'\ 8b- 8cc 8een	p
8GG^/ 8G	.	8g'\ 8b- 8cc 8ee	.
8r	.	8g'\J 8b- 8cc 8ee	.
8BB-^\ 8B-	.	8g'\L 8b- 8cc 8ee	.
8r	.	8g'\ 8b- 8cc 8ee	.
8EEn^/ 8En	.	8g\ 8b- 8cc 8ee	.
8r	.	8g\J 8b- 8cc 8ee	.
!LO:PB:g=original	!	!LO:PB:g=original	!
=47	=47	=47	=47
2.C^\ 2.c	ff	8g'\L 8b- 8cc 8een	>
.	.	8g'\ 8b- 8cc 8ee	.
.	.	8g'\ 8b- 8cc 8ee	.
.	.	8g'\J 8b- 8cc 8ee	.
.	.	8g'\L 8b- 8cc 8ee	.
.	.	8g'\ 8b- 8cc 8ee	.
8AA-\L 8A-	.	8g\ 8b- 8cc 8ee	]
*	*	*Xped	*
8GG\J 8G	.	8g\J 8b- 8cc 8ee	.
=48	=48	=48	=48
!	!	!LO:TX:a:B:t=Tempo primo.	!
*	*above	*	*
8FF\L 8F	.	8a-\ 8cc 8ff	.
8F'\ 8A- 8c	p	8r	.
8F'\ 8A- 8c	.	4r	.
8F'\J 8A- 8c	.	.	.
8F'\L 8A- 8c	.	2r	.
8F'\ 8A- 8c	.	.	.
8F'\ 8A- 8c	.	.	.
8F'\J 8A- 8c	.	.	.
=49	=49	=49	=49
*Xtremolo	*	*	*
8F\L 8A- 8c	.	8r	.
*	*	*8va	*
8F\ 8A- 8c	.	8aa-\L 8aaa-	.
8F\ 8A- 8c	.	8gg'\ 8ggg	.
8F\J 8A- 8c	.	8ff'\J 8fff	.
8F'\L 8A- 8c	.	8een'\L 8eeen	.
8F'\ 8A- 8c	.	8ff'\ 8fff	.
8F'\ 8A- 8c	.	8gg'\ 8ggg	.
8F'\J 8A- 8c	.	8ff'\J 8fff	.
!LO:LB:g=original	!	!LO:LB:g=original	!
=50	=50	=50	=50
8C\L	.	8een\ 8eeen	.
*	*	*X8va	*
8G\ 8B- 8c 8en	.	8r	.
*	*	*ped	*
8G\ 8B- 8c 8e	.	4r	.
8G\J 8B- 8c 8e	.	.	.
*	*	*clefF4	*
.	.	(8qCC^^/	ff
8G\L 8B- 8c 8e	.	2CC^^/)	.
8G\ 8B- 8c 8e	.	.	.
8G\ 8B- 8c 8e	.	.	.
8G\J 8B- 8c 8e	.	.	.
*	*	*clefG2	*
=51	=51	=51	=51
8G\L 8B- 8c 8e-	.	8r	.
*	*	*8va	*
8G\ 8B- 8c 8e-	.	8bb-'\L 8bbb-	.
8G\ 8B- 8c 8e-	.	8aa-'\ 8aaa-	.
8G\J 8B- 8c 8e-	.	8gg'\J 8ggg	.
8G'\L 8B- 8c 8e-	.	8ff#X'\L 8fff#X	.
8G'\ 8B- 8c 8e-	.	8gg'\ 8ggg	.
8G'\ 8B- 8c 8e-	.	8aa-'\ 8aaa-	.
8G'\J 8B- 8c 8e-	.	8gg'\J 8ggg	.
=52	=52	=52	=52
8FF\L 8F	.	8ffn'\ 8fffn	.
*	*	*X8va	*
8F'\ 8A- 8c	.	8r	.
*	*	*ped	*
8F'\ 8A- 8c	.	4r	.
8F'\J 8A- 8c	.	.	.
*	*	*clefF4	*
.	.	8qFF^^/	ff
8F'\L 8A- 8c	.	2FF^^/	.
!	!	!LO:LB:g=original	!
8F'\ 8A- 8c	.	.	.
8F'\ 8A- 8c	.	.	.
8F'\J 8A- 8c	.	.	.
*	*	*clefG2	*
!LO:LB:g=original	!	!	!
=53	=53	=53	=53
8F'\L 8A- 8c	.	8r	.
*	*	*8va	*
8F'\ 8A- 8c	.	8aa-'\L 8aaa-	.
8F'\ 8A- 8c	.	8gg'\ 8ggg	.
8F'\J 8A- 8c	.	8ff'\J 8fff	.
8F'\L 8A- 8c	.	8een'\L 8eeen	.
8F'\ 8A- 8c	.	8ff'\ 8fff	.
8F'\ 8A- 8c	.	8gg'\ 8ggg	.
*	*	*Xped	*
8F'\J 8A- 8c	.	8ff'\J 8fff	.
*	*	*X8va	*
=54	=54	=54	=54
4CC/ 4C	.	8een\L 8eeen	f
.	.	8dd-'\ 8ddd-	.
4r	.	8cc'\ 8ccc	.
.	.	8bn'\J 8bbn	.
4G\ 4B- 4c 4en	.	8cc'\L 8ccc	.
.	.	8b-X'\ 8bb-X	.
!	!	!	!LO:HP:t=cre - -
4r	.	8a-'\ 8aa-	<
.	.	8g'\J 8gg	.
=55	=55	=55	=55
8FF'/L 8F	.	8f'\L 8ff	.
8AA-'/ 8A-	.	8a-'\ 8aa-	.
8GG'/ 8G	.	8g'\ 8gg	.
8FF'/J 8F	.	8f'\J 8ff	.
8EEn'/L 8En	.	8en'\L 8een	.
8FF'/ 8F	.	8f'\ 8ff	.
8GG'/ 8G	.	8g'\ 8gg	.
8FF'/J 8F	.	8f'\J 8ff	.
!LO:LB:g=original	!	!LO:LB:g=original	!
=56	=56	=56	=56
8EEn'/L 8En	.	8en'/L 8een	ff
8DD-'/ 8D-	.	8d-'/ 8dd-	.
8CC'/ 8C	.	8c'/ 8cc	.
8BBBn'/J 8BBn	.	8Bn'/J 8bn	.
8CC'/L 8C	.	8c'/L 8cc	.
8BBB-X'/ 8BB-X	.	8B-X'/ 8b-X	.
8AAA-'/ 8AA-	.	8A-'/ 8a-	.
8GGG'/J 8GG	.	8G'/J 8g	.
=57	=57	=57	=57
*tremolo	*below	*	*
(32FFF/LLL	ff	8F/ 8f	.
32FF/	.	.	.
32FFF/	.	.	.
32FF/	.	.	.
32FFF/	.	8r	.
32FF/	.	.	.
32FFF/	.	.	.
32FF/	.	.	.
32FFF/	.	4r	.
32FF/	.	.	.
32FFF/	.	.	.
32FF/	.	.	.
32FFF/	.	.	.
32FF/	.	.	.
32FFF/	.	.	.
32FF/JJJ)	.	.	.
!	!	!LO:TX:a:B:t=Lento.	!
(32FFF/LLL	.	2r	ff
32FF/	.	.	.
32FFF/	.	.	.
32FF/	.	.	.
32FFF/	.	.	.
32FF/	.	.	.
32FFF/	.	.	.
32FF/	.	.	.
32FFF/	.	.	.
32FF/	.	.	.
32FFF/	.	.	.
32FF/	.	.	.
32FFF/	.	.	.
32FF/	.	.	.
32FFF/	.	.	.
32FF/JJJ)	.	.	.
=58	=58	=58	=58
*	*	*	*above
.	.	(8qc/ 8qf 8qan	>
*	*	*ped	*
(32FFF/LLL	ff	((2c/) [2f 2a	.
32FF/	.	.	.
32FFF/	.	.	.
32FF/	.	.	.
32FFF/	.	.	.
32FF/	.	.	.
32FFF/	.	.	.
32FF/	.	.	.
32FFF/	.	.	.
32FF/	.	.	.
32FFF/	.	.	.
32FF/	.	.	.
32FFF/	.	.	.
32FF/	.	.	.
32FFF/	.	.	.
32FF/JJJ)	.	.	.
!	!	!LO:TX:b:B:t=rallen.	!
(32FFF/LLL	.	4A-/)) 4c 4f]	]
32FF/	.	.	.
32FFF/	.	.	.
32FF/	.	.	.
32FFF/	.	.	.
32FF/	.	.	.
32FFF/	.	.	.
32FF/	.	.	.
32FFF/	.	4r	.
32FF/	.	.	.
32FFF/	.	.	.
32FF/	.	.	.
32FFF/	.	.	.
32FF/	.	.	.
32FFF/	.	.	.
32FF/JJJ)	.	.	.
=59	=59	=59	=59
*	*	*	*below
.	.	(8qf/ 8qan 8qcc	ff
*	*	*	*above
(32FFF/LLL	.	([2f/) [2a 2cc	>
32FF/	.	.	.
32FFF/	.	.	.
32FF/	.	.	.
32FFF/	.	.	.
32FF/	.	.	.
32FFF/	.	.	.
32FF/	.	.	.
32FFF/	.	.	.
32FF/	.	.	.
32FFF/	.	.	.
32FF/	.	.	.
32FFF/	.	.	.
32FF/	.	.	.
32FFF/	.	.	.
32FF/JJJ)	.	.	.
(32FFF/LLL	.	4c/) 4f] 4a]	]
32FF/	.	.	.
32FFF/	.	.	.
32FF/	.	.	.
32FFF/	.	.	.
32FF/	.	.	.
32FFF/	.	.	.
32FF/	.	.	.
32FFF/	.	4r	.
!	!	!LO:LB:g=original	!
32FF/	.	.	.
32FFF/	.	.	.
32FF/	.	.	.
32FFF/	.	.	.
32FF/	.	.	.
32FFF/	.	.	.
32FF/JJJ)	.	.	.
!LO:LB:g=original	!	!	!
=60	=60	=60	=60
*	*	*	*below
.	.	(8qan/ 8qcc 8qff	>
32FFF/LLL	.	1a;) 1cc 1ff	.
32FF/	.	.	.
32FFF/	.	.	.
32FF/	.	.	.
32FFF/	.	.	.
32FF/	.	.	.
32FFF/	.	.	.
32FF/	.	.	.
32FFF/	.	.	.
32FF/	.	.	.
32FFF/	.	.	.
32FF/	.	.	.
32FFF/	.	.	.
32FF/	.	.	.
32FFF/	.	.	.
32FF/JJJ	.	.	.
32FFF/LLL	.	.	.
32FF/	.	.	]
32FFF/	.	.	.
32FF/	.	.	.
32FFF/	.	.	.
32FF/	.	.	.
32FFF/	.	.	.
32FF/	.	.	.
32FFF/	.	.	.
32FF/	.	.	.
32FFF/	.	.	.
32FF/	.	.	.
32FFF/	.	.	.
32FF/	.	.	.
32FFF/	.	.	.
32FF/JJJ	.	.	.
=61	=61	=61	=61
*k[b-]	*	*k[b-]	*
!	!	!LO:TX:a:B:t=Allegro.	!
*	*	*Xtuplet	*
1r	.	12.cc\L	] ff
.	.	24cc\K	.
.	.	12cc\J	.
!	!	!LO:TX:b:B:t=piu mosso	!
.	.	12.g/L	.
.	.	24g/K	.
.	.	12g/J	.
.	.	12.e/L	.
.	.	24e/K	.
.	.	12e/J	.
.	.	12.g/L	.
.	.	24g/K	.
.	.	12g/J	.
=62	=62	=62	=62
1r	.	12.cc^\L	.
.	.	24cc\K	.
.	.	12cc\J	.
.	.	12.g/L	.
.	.	24g/K	.
.	.	12g/J	.
.	.	12.e/L	.
.	.	24e/K	.
.	.	12e/J	.
.	.	12.g/L	.
.	.	24g/K	.
.	.	12g/J	.
=63	=63	=63	=63
1r	.	2.cc^;\	.
!LO:LB:g=original	!	!	!
.	.	4r	.
!	!	!LO:LB:g=original	!
=64	=64	=64	=64
!	!	!LO:TX:a:B:t=Tempo primo.	!
(32FF\LLL	.	12.A^/L 12.c 12.f	.
32F\	.	.	.
32FF\	.	.	.
32F\	.	.	.
32FF\	.	24A/K 24c 24f	.
32F\	.	.	.
.	.	12A/J 12c 12f	.
32FF\	.	.	.
32F\	.	.	.
32FF\	.	12.c^/L 12.f 12.a	.
32F\	.	.	.
32FF\	.	.	.
32F\	.	.	.
32FF\	.	24c/K 24f 24a	.
32F\	.	.	.
.	.	12c/J 12f 12a	.
32FF\	.	.	.
32F\JJJ)	.	.	.
(32FF\LLL	.	12.f^/L 12.a 12.cc	.
32F\	.	.	.
32FF\	.	.	.
32F\	.	.	.
32FF\	.	24f/K 24a 24cc	.
32F\	.	.	.
.	.	12f/J 12a 12cc	.
32FF\	.	.	.
32F\	.	.	.
32FF\	.	4a^\ 4cc 4ff	.
32F\	.	.	.
32FF\	.	.	.
32F\	.	.	.
32FF\	.	.	.
32F\	.	.	.
32FF\	.	.	.
32F\JJJ)	.	.	.
=65	=65	=65	=65
4FF^/ 4F	.	12.a^\L 12.cc 12.ff	ff
.	.	24a\K 24cc 24ff	.
.	.	12a\J 12cc 12ff	.
4CC^/ 4C	.	12.cc\L 12.ff 12.aa	<
.	.	24cc\K 24ff 24aa	.
.	.	12cc\J 12ff 12aa	.
4AAA^/ 4AA	.	12.ff\L 12.aa 12.ccc	.
.	.	24ff\K 24aa 24ccc	[
.	.	12ff\J 12aa 12ccc	.
4FFF;/ 4FF	.	4aa;\ 4ccc 4fff	ff
!LO:LB:g=original	!	!LO:LB:g=original	!
=66	=66	=66	=66
*M3/4	*	*M3/4	*
!	!	!LO:TUP:b 	!
!	!	!LO:TX:a:B:t=AndanteModerato.	!
*	*	*tuplet	*
!	!	!LO:TUP:b	!
2.F\ 2.A 2.c	.	(12a/L	p >
.	.	12g#X/	.
.	.	12a/J)	.
.	.	4f/	.
.	.	4c/	]
=67	=67	=67	=67
!	!	!LO:TUP:b 	!
2.F\ 2.A 2.c	.	(12a/L	>
.	.	12g#X/	.
.	.	12a/J)	.
.	.	4ryy	.
.	.	4c/	]
=68	=68	=68	=68
!	!	!LO:TUP:a:	!
4C\ 4E 4G	.	(12g\L	<
.	.	12a\	.
.	.	12b-\J)	.
2G\ 2B- 2c 2e	.	4cc\	[
.	.	4dd\	.
=69	=69	=69	=69
!	!	!LO:TUP:b	!
4G\ 4B- 4c 4e	.	(12b-/L	.
.	.	12a/	.
.	.	12g/J)	.
2C^\ 2E 2G 2c	.	2e^/ 2g 2cc	.
=70	=70	=70	=70
!	!	!LO:TUP:b	!
4G\ 4Bn 4d 4f	.	(12g/L	.
.	.	12a/	.
.	.	12bn/J)	.
4C\ 4E 4G 4c	.	4e^/ 4g 4cc	.
4C\ 4E 4G 4c	.	4e^/ 4g 4cc	.
!LO:LB:g=original	!	!LO:LB:g=original	!
=71	=71	=71	=71
*	*	*^	*
!	!	!LO:TUP:b	!	!
4G\ 4Bn 4d 4f	.	(12g/L	4ryy	.
.	.	12a/	.	.
.	.	12bn/J)	.	.
2C\ 2E 2G 2c	.	(<4cc/	2e^\	.
.	.	4g/)	.	.
=72	=72	=72	=72	=72
*	*	*Xtuplet	*	*
4C\ 4E 4G 4c	.	(<12cc/L	4e\	.
.	.	12bn/	.	.
.	.	12a/J)	.	.
4G\ 4Bn 4d 4f	.	4g/	2ryy	.
4G\ 4B 4d 4f	.	4g/	.	.
*	*	*v	*v	*
=73	=73	=73	=73
4GG\ 4BB- 4D 4G	.	12g/L	.
.	.	12a/	.
.	.	12bn/J	.
2C;\ 2E 2G 2c	.	2e;/ 2g 2cc	f
=74||	=74||	=74||	=74||
!	!	!LO:TX:a:B:t=Lento.	!
4F\ 4A-X 4c	.	(12f/L	.
.	.	12e/	.
.	.	12f/J)	.
4C\ 4E 4G 4c	.	4g/	p
4C\ 4E 4G 4c	.	4g/	.
=75	=75	=75	=75
4F\ 4A-X 4c	.	(12a-X/L	.
.	.	12g/	>
.	.	12f/J)	.
4C\ 4E 4G	.	(4g/	.
4C\ 4E 4G	.	4c/)	]
!LO:LB:g=original	!	!LO:LB:g=original	!
=76	=76	=76	=76
*	*	*tuplet	*
!	!	!LO:TUP:b:	!
4F\ 4A-X 4c	.	(12f/L	.
.	.	12e/	.
.	.	12f/J)	.
4C\ 4E 4G 4c	.	4g/	.
4C\ 4E 4G 4c	.	4g/	.
=77	=77	=77	=77
*	*	*Xtuplet	*
4F\ 4A-X 4c	.	(12a-X/L	.
.	.	12g/	.
.	.	12f/J)	.
2C\ 2E 2G	.	4g/	.
.	.	4c/	.
=78	=78	=78	=78
4F\ 4A-X 4c	.	(12f/L	.
.	.	12e/	.
.	.	12f/J)	.
4C\ 4E 4G 4c	.	4g/	.
4C\ 4E 4G 4c	.	4g/	.
=79	=79	=79	=79
4F\ 4A-X 4c	.	(12a-X/L	.
.	.	12g/	.
.	.	12f/J)	.
2C;\ 2E 2G	.	2e^;/ 2g 2b-	f
=80||	=80||	=80||	=80||
!	!	!LO:TX:a:B:t=Allegro.	!
4FF/ 4F	.	8cc\L 8aa	ff
.	.	8cc\J 8aa	>
4F\ 4A 4c	.	4a\ 4ff	.
4F\ 4A 4c	.	4a\ 4cc	]
!LO:LB:g=original	!	!LO:LB:g=original	!
=81	=81	=81	=81
4FF/ 4F	.	8cc'^\L 8aa	.
.	.	8cc\J 8aa	>
4F\ 4A 4c	.	4a'\ 4ff	.
4F\ 4A 4c	.	4a'\ 4cc	]
=82	=82	=82	=82
!	!	!LO:TUP:a:problem:klamra łukowa	!
4CC/ 4C	.	12g\L 12gg	f
.	.	12a\ 12aa	.
.	.	12b-\J 12bb-	.
4G\ 4B- 4c 4e	.	4cc^\ 4ccc	.
4G\ 4B- 4c 4e	.	4dd^\ 4ddd	.
=83	=83	=83	=83
!	!	!LO:TUP:a:problem:klamra łukowa	!
4CC/ 4C	.	12b-\L 12bb-	.
.	.	12a\ 12aa	.
.	.	12g\J 12gg	.
2C;\ 2E 2G 2c	.	2ee^;\ 2gg 2ccc	f
=84	=84	=84	=84
!	!	!LO:TX:a:B:t=piu mosso.	!
!	!	!LO:TUP:a:problem:klamra łukowa	!
4EE/ 4E	.	12g\L	p
.	.	12a\	.
.	.	12b-\J	.
4G\ 4B- 4c 4e	.	8cc\	.
.	.	8r	.
4G\ 4B- 4c	.	8dd\	.
.	.	8r	.
=85	=85	=85	=85
!	!	!	!LO:DY:b
8CC/ 8C	.	8b-^^\ 8bb-	f
8r	.	8r	.
8G^^\ 8B- 8c 8e	.	8g^^\ 8gg	.
8r	.	8r	.
!	!	!LO:TX:a:B:t=Fine.	!
4FF^^/ 4AA 4C 4F	.	8A^^/ 8c 8f	ff
.	.	8r	.
==	==	==	==
*-	*-	*-	*-
!!!RDF**kern: > = above
!!!RDF**kern: < = below
!!!system-decoration: {(s1,s2)}
!!!ENC: Marta Opryszak
!!!END: 2022-07-29
!!!ENC: Julita Ruszuk
!!!END: 2022-08-25
!!!YEC: Copyright 2022 Narodowy Instytut Fryderyka Chopina (https://polishscores.org)
!!!YEM: Licence CC BY 4.0 (https://creativecommons.org/licenses/by/4.0)
